X: 39070
T: Swedish Rhapsody, The
R: polka
M: 2/4
K: Gmajor
d2B2B2|c>B cd (3cA^F|d2B2B2|c>B cd (3cA^F|
(3D=E^F GB AF|(3D=E^F GB AF|(3D=E^F GB AG|(3^FGA G2z2||
|:d2d>e d>c|c>BG2B2|d>cD2F>A|1 c>B G>A B>c:|2 c>BG2z2||
|:D2F>F A>A|d>ef2d2|e>f g>e ^c>e|1 e>d f>d A>F:|2 e>dd4||
|:d2d>e d>c|c>BG2B2|d>cD2F>A|1 c>B G>A B>c:|2 c>BG2z2||

